Yaru++/apps/symbolic/goa-account-flickr-symbolic.svg

<svg height="16" viewBox="0 0 16 16" width="16" xmlns="http://www.w3.org/2000/svg" xmlns:xlink="http://www.w3.org/1999/xlink">
  <clipPath id="_clipPath_uXCgxcya0gshLOCZ8Dd7a2VHPE1d4fQ7">
    <path d="m0 0h16v16h-16z"/>
  </clipPath>
  <g clip-path="url(#_clipPath_uXCgxcya0gshLOCZ8Dd7a2VHPE1d4fQ7)">
    <path d="m0 0h16v16h-16z" fill="none"/>
    <g fill="#808080">
      <path d="m7.512 8c0 1.798-1.458 3.256-3.256 3.256s-3.256-1.458-3.256-3.256 1.458-3.256 3.256-3.256 3.256 1.458 3.256 3.256z"/>
      <path d="m15 8c0 1.798-1.458 3.256-3.256 3.256s-3.256-1.458-3.256-3.256 1.458-3.256 3.256-3.256 3.256 1.458 3.256 3.256z"/>
    </g>
  </g>
</svg>

<svg xmlns="http://www.w3.org/2000/svg" style="isolation:isolate" width="16" height="16" version="1.1" viewBox="0 0 16 16">
 <defs>
  <style id="current-color-scheme" type="text/css">
   .ColorScheme-Text { color:#808080; } .ColorScheme-Highlight { color:#5294e2; }
  </style>
  <linearGradient id="arrongin" x1="0%" x2="0%" y1="0%" y2="100%">
   <stop style="stop-color:#dd9b44" id="stop3" offset="0%"/>
   <stop style="stop-color:#ad6c16" id="stop5" offset="100%"/>
  </linearGradient>
  <linearGradient id="aurora" x1="0%" x2="0%" y1="0%" y2="100%">
   <stop style="stop-color:#09D4DF" id="stop8" offset="0%"/>
   <stop style="stop-color:#9269F4" id="stop10" offset="100%"/>
  </linearGradient>
  <linearGradient id="fitdance" x1="0%" x2="0%" y1="0%" y2="100%">
   <stop style="stop-color:#1AD6AB" id="stop13" offset="0%"/>
   <stop style="stop-color:#329DB6" id="stop15" offset="100%"/>
  </linearGradient>
  <linearGradient id="oomox" x1="0%" x2="0%" y1="0%" y2="100%">
   <stop style="stop-color:#efefe7" id="stop18" offset="0%"/>
   <stop style="stop-color:#8f8f8b" id="stop20" offset="100%"/>
  </linearGradient>
  <linearGradient id="rainblue" x1="0%" x2="0%" y1="0%" y2="100%">
   <stop style="stop-color:#00F260" id="stop23" offset="0%"/>
   <stop style="stop-color:#0575E6" id="stop25" offset="100%"/>
  </linearGradient>
  <linearGradient id="sunrise" x1="0%" x2="0%" y1="0%" y2="100%">
   <stop style="stop-color:#FF8501" id="stop28" offset="0%"/>
   <stop style="stop-color:#FFCB01" id="stop30" offset="100%"/>
  </linearGradient>
  <linearGradient id="telinkrin" x1="0%" x2="0%" y1="0%" y2="100%">
   <stop style="stop-color:#b2ced6" id="stop33" offset="0%"/>
   <stop style="stop-color:#6da5b7" id="stop35" offset="100%"/>
  </linearGradient>
  <linearGradient id="60spsycho" x1="0%" x2="0%" y1="0%" y2="100%">
   <stop style="stop-color:#df5940" id="stop38" offset="0%"/>
   <stop style="stop-color:#d8d15f" id="stop40" offset="25%"/>
   <stop style="stop-color:#e9882a" id="stop42" offset="50%"/>
   <stop style="stop-color:#279362" id="stop44" offset="100%"/>
  </linearGradient>
  <linearGradient id="90ssummer" x1="0%" x2="0%" y1="0%" y2="100%">
   <stop style="stop-color:#f618c7" id="stop47" offset="0%"/>
   <stop style="stop-color:#94ffab" id="stop49" offset="20%"/>
   <stop style="stop-color:#fbfd54" id="stop51" offset="50%"/>
   <stop style="stop-color:#0f83ae" id="stop53" offset="100%"/>
  </linearGradient>
  <clipPath id="_clipPath_uXCgxcya0gshLOCZ8Dd7a2VHPE1d4fQ7">
   <rect width="16" height="16"/>
  </clipPath>
 </defs>
 <g clip-path="url(#_clipPath_uXCgxcya0gshLOCZ8Dd7a2VHPE1d4fQ7)">
  <rect fill-opacity="0" width="16" height="16"/>
  <path style="fill:currentColor" class="ColorScheme-Text" d="M 7.512 8 C 7.512 9.798 6.054 11.256 4.256 11.256 C 2.458 11.256 1 9.798 1 8 C 1 6.202 2.458 4.744 4.256 4.744 C 6.054 4.744 7.512 6.202 7.512 8 Z"/>
  <path style="fill:currentColor" class="ColorScheme-Text" d="M 15 8 C 15 9.798 13.542 11.256 11.744 11.256 C 9.946 11.256 8.488 9.798 8.488 8 C 8.488 6.202 9.946 4.744 11.744 4.744 C 13.542 4.744 15 6.202 15 8 Z"/>
 </g>
</svg>
